X:155
T:Soldiers Joy
A:Wyresdale, Lancashire
B:A John Winder Book, April 1789
L:1/8
M:C|
O:England
Z:Richard Robinson 
%%TUNEURL: http://www.leeds.ac.uk/music/Info/RRTuneBk/gettune/00000dc9.html
%%ID:00000dc9
K:D
(FG) |\
(AF)(DF) (AF)(DF) | D2d2 d2(cB) | (AF)(DF) (AF)(DF) | G2E2 E2(FG) |
AFDF AFDF | D2d2 defg | afdf gece | d2d2 d2::
e2 |\
(fe)(fg) (fa)(gf) | (ed)(ef) (ef)(ge) |(fe)(fg) fagf | edcB A2A2 |
fefg fagf | edef efge | afdf gece | d2d2 d2 :|
% page 17
